packages/ui-icons/svg/Line/muted.svg

<svg viewBox="0 0 1920 1920" version="1.1" xmlns="http://www.w3.org/2000/svg">
    <path d="M1505.84533,72.0933333 L1318.32533,295.56 C1274.16533,262.92 1224.992,234.546667 1171.12533,211.613333 C1103.28533,183.986667 1032.352,167.773333 960.032,162.226667 L960.032,53 L853.365333,53 L853.365333,162.333333 C495.925333,189.746667 213.365333,488.733333 213.365333,853 L213.365333,1226.33333 C213.365333,1282.76 190.645333,1337.90667 151.072,1377.37333 C111.605333,1416.94667 56.4586667,1439.66667 0.032,1439.66667 L0.032,1546.33333 L269.365333,1546.33333 L119.178667,1725.42667 L200.885333,1793.90667 L1587.552,140.573333 L1505.84533,72.0933333 Z M1479.46667,462.6 C1558.29333,577.586667 1600,712.626667 1600,853 L1600,853 L1600,1226.33333 C1600,1343.98667 1695.68,1439.66667 1813.33333,1439.66667 C1842.77333,1439.66667 1866.66667,1463.56 1866.66667,1493 C1866.66667,1522.44 1842.77333,1546.33333 1813.33333,1546.33333 L1813.33333,1546.33333 L1226.66667,1546.33333 C1226.66667,1722.76 1083.09333,1866.33333 906.666667,1866.33333 C730.24,1866.33333 586.666667,1722.76 586.666667,1546.33333 L586.666667,1546.33333 L586.666667,1493 C586.666667,1463.56 610.56,1439.66667 640,1439.66667 L640,1439.66667 L1575.04,1439.66667 C1524.26667,1383.02667 1493.33333,1308.25333 1493.33333,1226.33333 L1493.33333,1226.33333 L1493.33333,853 C1493.33333,734.28 1458.13333,620.04 1391.57333,522.973333 L1391.57333,522.973333 Z M1120,1546.33333 L693.333333,1546.33333 C693.333333,1663.98667 789.013333,1759.66667 906.666667,1759.66667 C1024.32,1759.66667 1120,1663.98667 1120,1546.33333 L1120,1546.33333 Z M906.698667,266.333333 C983.818667,266.333333 1059.12533,281.16 1129.952,310.066667 C1173.68533,328.733333 1213.792,351.88 1249.52533,377.693333 L358.858667,1439.66667 L238.858667,1439.66667 C290.592,1381.64 320.032,1304.84 320.032,1226.33333 L320.032,853 C320.032,529.586667 583.285333,266.333333 906.698667,266.333333 Z" stroke="none" stroke-width="1" fill-rule="evenodd"/>
</svg>

<svg viewBox="0 0 1920 1920" xmlns="http://www.w3.org/2000/svg">
    <path d="m1505.845 72.093-187.52 223.467c-44.16-32.64-93.333-61.013-147.2-83.947-67.84-27.626-138.773-43.84-211.093-49.386V53H853.365v109.333c-357.44 27.414-640 326.4-640 690.667v373.333c0 56.427-22.72 111.574-62.293 151.04-39.467 39.574-94.613 62.294-151.04 62.294v106.666h269.333L119.18 1725.427l81.706 68.48L1587.552 140.573l-81.707-68.48ZM1479.467 462.6C1558.293 577.587 1600 712.627 1600 853v373.333c0 117.654 95.68 213.334 213.333 213.334 29.44 0 53.334 23.893 53.334 53.333 0 29.44-23.894 53.333-53.334 53.333h-586.666c0 176.427-143.574 320-320 320-176.427 0-320-143.573-320-320V1493c0-29.44 23.893-53.333 53.333-53.333h935.04c-50.773-56.64-81.707-131.414-81.707-213.334V853c0-118.72-35.2-232.96-101.76-330.027ZM1120 1546.333H693.333c0 117.654 95.68 213.334 213.334 213.334 117.653 0 213.333-95.68 213.333-213.334Zm-213.301-1280c77.12 0 152.426 14.827 223.253 43.734 43.733 18.666 83.84 41.813 119.573 67.626L358.86 1439.667h-120c51.733-58.027 81.173-134.827 81.173-213.334V853c0-323.413 263.253-586.667 586.667-586.667Z" fill-rule="evenodd"/>
</svg>
